anadea-new/source/img/icon-ln.svg

<svg width="17" height="16" viewBox="0 0 17 16" fill="none" xmlns="http://www.w3.org/2000/svg">
<path fill-rule="evenodd" clip-rule="evenodd" d="M2.80878 3.98864C1.69268 3.98864 0.799805 3.10228 0.799805 1.99432C0.799805 0.886365 1.69268 0 2.80878 0C3.92487 0 4.81775 0.886365 4.81775 1.99432C4.81775 3.10228 3.92487 3.98864 2.80878 3.98864ZM4.48291 15.8438H1.13477V5.87217H4.48291V15.8438ZM13.4117 15.8438H16.76V9.52842C16.76 7.42331 14.9743 5.65058 12.8537 5.65058C11.8492 5.65058 10.6215 6.31535 10.0634 7.20171V5.87217H6.71515V15.8438H10.0634V9.97161C10.0634 9.08528 10.8447 8.30967 11.7376 8.30967C12.6305 8.30967 13.4117 9.08528 13.4117 9.97161V15.8438Z" fill="#82919A"/>
</svg>

<svg width="17" height="16" fill="none" xmlns="http://www.w3.org/2000/svg"><path fill-rule="evenodd" clip-rule="evenodd" d="M2.809 3.989a1.993 1.993 0 110-3.989 1.993 1.993 0 110 3.989zm1.674 11.855H1.135V5.872h3.348v9.972zm8.929 0h3.348V9.528c0-2.105-1.786-3.877-3.906-3.877-1.005 0-2.232.664-2.79 1.55V5.873h-3.35v9.972h3.348V9.972c0-.887.782-1.662 1.675-1.662s1.674.775 1.674 1.662v5.872z" fill="#82919A"/></svg>
